X:1
T:[ID 3-1]
T:[ID 3-1]
T:Bezeichnung standardisiert: Menuett Menuet
T:Urheber unbekannt Erstbeleg: 1767 (Datum in der schriftlichen Quelle) Datum in der hier transkribierten schriftlichen Quelle: 1796
C:Urheber unbekannt
C:Erstbeleg: 1767 (Datum in der schriftlichen Quelle)
C:Datum in der hier transkribierten schriftlichen Quelle: 1796
L:1/8
M:3/4
K:G
V:1 treble 
V:1
 d4 DE | F2 E2 D2 | e4 AB | c2 B2 A2 | (af)(fd) d2 | (af)(fd) d2 | ef g2 f2 | Tf4 e2 :: e3 fef | %9
 e2 f2 g2 | f3 gfg | f2 g2 a2 | (af)(fd) d2 | (af)(fd) d2 | (3gfe d2 c2 | Tc4 d2 :| %16

